X: 2374
M: C
L: 1/8
K: D
(udc) |:\
dAFA DFAd | fdAd FAdf |\
[1 gfge fefd | edcB ABcA :|\
[2 gabg face | d2d2d2 |]
(AG) |:\
[1 Acec Acec | dfaf gecA :|\
[2 Aceg face | d2d2d2 |]


